X:1
T:Videntes stellam
T:Andrea Gabrieli
T:Source : Liber primus Ecclesiasticarum Cantionum---Venetia---Ang.Gardano---1576. Editor : André Vierendeels (14/09/17). 
T:Videntes stellam
T:©
T:©
T:©
T:©
T:©
C:Andrea Gabrieli
Z:©
%%score [ 1 2 3 4 ]
L:1/8
Q:1/4=120
M:2/2
K:F
V:1 treble nm="Soprano" snm="S"
V:2 treble nm="Alto" snm="A"
V:3 treble-8 nm="Tenor 1" snm="T 1"
V:4 treble-8 nm="Tenor 2" snm="T 2"
V:1
 G4 B2 G2 | d8 | d8 | z8 | z2 d2 d2 c2 | f8 | e4 z4 | z8 | z4 z2 d2- | d2 c2 B2 fe | dc d4 c2 | %11
w: Vi- den- tes|stel-|lam,||vi- den- tes|stel-|lam-||Ma-|* gi ga- vi- *|* * * si|
 d3 c/B/ A4 | z2 d3 d c2- | c2 B4 A2 | B4 z4 | z2 B3 B A2- | A2 G4 F2 | G2 d4 d2 | e2 f2 g4 | d8 | %20
w: sunt _ _ _|gau- di- o|_ ma- *|gno,|gau- di- o|_ ma- *|gno, et in-|tran- te do-|mum|
 z4 z2 _e2- | e2 d2 B2 d2 | c2 A2 A4 | z8 | z8 | z8 | z8 | z2 A4 A2 | d6 ^cB | ^c4 d2 B2 | %30
w: in-|* ve- ne- runt|pu- e- rum|||||cum Ma-|ri- * *|* a ma-|
 B2 A3 G/F/ G2 | A4 z2 e2 | f2 d2 de f2- | f2 e2 f4 | z8 | z8 | c8 | d6 c2 | B4 A4- | A4 G4- | %40
w: tre e- * * *|ius et|pro- ci- den- * *|* * tes|||a-|do- ra-|ve- runt|_ e-|
 G2 FE F4 | G4 z2 d2- | d2 d2 f4 | e2 f2 g2 f2 | defd f2 e2 | z2 d4 d2 | d2 c2 B2 G2 | d2 d2 G4 | %48
w: |um et|_ a- per-|tis the- sau- ris|su- * * * * is|ob- tu-|le- runt e- i|mu- ne- ra,|
 z8 | z2 d4 d2 | d2 c2 B2 G2 | d2 d2 G2 F2- | FGAF GA B2- | B2 A2 B4 | d3 e f4 | d8 | z2 B3 c d2- | %57
w: |ob- tu-|le- runt e- i|mu- ne- ra, mu-||* ne- ra:|au- * *|rum,|au- * *|
 d2 d2 c4- | c4 c2 c2- | c2 BA B2 B2 | A4 A4 | B3 c d4 | B4 G2 d2 | _e3 d c4 | =B8 |] %65
w: * rum, au-|* rum, thus|_ _ _ _ et|myr- ram,|au- * *|rum, thus et|myr- * *|ram|
V:2
 z8 | z2 G2 G2 F2 | B8 | A4 z2 D2 | F2 D2 A4- | A4 A4 | z2 A4 G2 | F2 BA GF G2- | G2 F2 G4 | %9
w: |Vi- den- tes|stel-|lam, vi-|den- tes stel-|* lam|Ma- gi|ga- vi- * * * *|* si sunt,|
 z2 F4 D2 | G4 F2 E2 | D4 z4 | z2 B3 B A2- |"^b" A2 F3 E/D/ C2 |"^b" D3 E F4 | z2 G3 G F2 | %16
w: Ma- gi|ga- vi- si|sunt|gau- di- o|_ ma- * * *|gno, _ _|gau- di- o|
 F2 D2 z2 D2- | D2 D2 G2 B2 | A4 G2 c2- | c2 B2 G2 B2 | A2 G2 G2 c2- | c2 B2 G2 B2 | AGFE F3 G/A/ | %23
w: ma- gno, et|_ in- tran- tes|do- mum in-|* ve- ne- runt|pu- e- rum, in-|* ve- ne- runt|pu- * * * * * *|
 B2 G2 A4 | z4 z2 F2- | F2 D2 F2 G2 | A3 G/A/ B2 A2 | G2 F4 F2 | A8- | A4 A2 G2- | G2 C2 D3 E | %31
w: * e- rum,|in-|* ve- ne- runt|pu- * * * e-|rum cum Ma-|ri|_ a ma-|* ter e- *|
 F2 ED E4 | z2 F2 B2 A2 | G4 F4- | F4 z4 | z8 | A8 | B6 A2 | G4 F4- | F4 _E3 D/E/ | D8 | D2 G4 G2 | %42
w: * * * ius|et pro- ci-|den- tes|_||a-|do- ra-|ve- runt|_ e- * *||um et a-|
 B4 A2 B2 | c2 B2 GABA | B2 A2 z2 G2- | G2 G2 G2 F2 | E2 F2 G2 _E2 | D3 C B,3 A, | G,4 z4 | z8 | %50
w: per- tis the-|sau- ris su- * * *|* is ob-|* tu- le- runt|e- i mu- ne-|ra, _ _ _|_||
 z4 z2 B2- | B2 B2 B2 A2 | F2 F2 D3 E | F4 F4 | F2 D3 E F2- | F2 F2 F3 E/F/ | G2 D4 G2- | %57
w: ob-|* tu- le- runt|e- i mu- ne-|ra: au-|rum, au- * *|* rum, au- * *|* rum, au-|
 GA B2 A4 | G4 A4 | G4 D2 G2- | G2 ^FE F4 | G4 G4 | D2 G4 G2 | G8 | G8 |] %65
w: * * * rum,|au- rum,|thus et myr-||ram, au-|rum, thus et|myr-|ram.|
V:3
 z8 | z8 | G4 B2 G2 | d8 | d2 f4 e2 | d2 fe dc d2- | d2 c2 d4- | d4 z4 | z2 c4 B2 | A4 d3 c | %10
w: ||Vi- den- tes|stel-|lam Ma- gi|ga- vi- * * * *|* si sunt,|_|ma- gi|ga- vi- *|
 BAGB A2 A2 | d2 f3 f e2 | f4 f2 f2- | ff d2 c4 | B2 d3 d c2 | d4 d2 d2- | dd B2 A4 | B3 A G4 | %18
w: * * * * * si|sunt gau- di- o|ma- hno, gau-|* di- o ma-|gno, gau- di- o|ma- gno, gau-|* di- o ma-|* * gno,|
 z8 | z8 | z8 | z8 | z4 z2 d2- | d2 d2 e2 f2 | g4 d4 | z4 z2 g2- | g2 f2 d2 f2 | e2 d2 d4 | f6 e2 | %29
w: ||||et|_ in- tran- tes|do- mum|in|_ ve- ne- runt|pu- e- rum|cum Ma-|
 e4 f2 d2 | d2 f3 e d2- | d2 ^c=B c4 | d8 | z8 | z2 c2 f2 e2 | d4 c4 | f8 | f6 f2 | d8 | c8 | A8 | %41
w: ri- a ma-|ter e- * *||ius||et pro- ci-|den- tes|a-|do- ra-|ve-|runt|e-|
 B3 c d4- | d8 | z8 | z8 | z8 | z8 | z4 z2 d2- | d2 d2 f4 | e2 f2 g2 f2 | defe g2 d2 | z2 d4 d2 | %52
w: um, _ _|_|||||et|_ a- per-|tis the- sau- ris|su- * * * * is|ob- tu-|
 d2 c2 B2 G2 | c2 c2 B2 d2- | de f2 d4 | z2 B3 c d2 | B4 G3 A | Bcde fe f2- | f2 e2 f3 e | %59
w: le- runt e- i|mu- ne- ra: au-|* * * rum,|au- * *|rum, au- *||* rum, au- *|
 d4 g2 d2- | d2 d2 d4 | G2 dc BA G2- | G2 d2 _e2 d2 | c3 d _e4 | d8 |] %65
w: * rum, thus|_ et myr-|ram, au- * * * *|* rum, thus et|myr- * *|ram.|
V:4
 z8 | z8 | z4 z2 G2 | G2 F2 B4- | B4 A4 | z2 D2 F2 D2 | A4 d2 B2- | B2 G2 c4 | B2 A2 G2 G2 | %9
w: ||Vi-|den- tes stel-|* lam,|vi- den- tes|stel- lam Ma-|* gi ga-|vi- si sunt, ga-|
 F2 A2 B4 | z8 | z2 d3 d c2 | B3 A/G/ F4- | F4 F4 | z2 B3 B A2 | G3 F/E/ D4- | D8 | G4 z4 | z8 | %19
w: vi- si sunt||gau- di- o|ma- * * *|* gno,|gau- di- o|ma- * * *||gno||
 z2 G4 G2 | A2 B2 c4 | G8 | z2 D4 D2 | G2 B2 A4 | G2 c4 B2 | d2 B2 A2 G2 | d8 | z4 D4- | %28
w: et in-|tran- tes do-|mum,|et in-|tran- tes do-|mum in- ve-|ne- runt pu- e-|rum|cum|
 D2 D2 A4- | A4 D2 G2- | G2 A2 B4 | A8 | z8 | z4 z2 d2 | B2 A2 AB c2- |"^-natural" c2 B2 c4 | F8 | %37
w: _ Ma- ri-|* a ma-|* ter e-|ius,||et|pro- ci- den- * *|* * tes|a-|
 B6 F2 | G4 D3 E | F4 C4 | D8 | G8- | G4 z4 | z4 z2 d2- | d2 d2 d2 c2 | B2 G2 d2 d2 | A4 z4 | %47
w: do- ra-|ve- * *|runt _|e-|um,|_|ob-|* tu- le- runt|e- i mu- ne-|ra|
 z2 G4 G2 | B4 A2 B2 | c2 B2 GABA | B2 A2 z2 G2- | G2 G2 G2 D2 | B2 A2 G4 | F4 B4- | B4 z2 B2- | %55
w: et a-|per- tis the-|sau- ris su- * * *|* is, ob-|* tu- le- runt|e- i mu-|ne- ra|_ au-|
 Bc d2 B4 | G3 A B4 | G4 A3 B | c4 F4 | G6 G2 | D4 D4 | z2 G3 A B2- | B2 G2 c2 =B2 | c8 | G8 |] %65
w: * * * rum,|au- * *|rum, au- *|* rum,|thus et|myr- ram,|au- * *|* rumn thus et|myr-|ram.|

